X:1
T:Haweis First
T:B Major         Thomas Haweis, 1791
T:Thomas Haweis, 1791                         88. 88. (L. M.)
T:Transcribed from Carmina Christo, 1791
T:No Copyright.  Transcribed from Suffolk Harmony, 1786.
T:No Copyright.  Transcribed from Suffolk Harmony, 1786.
Z:No Copyright.  Transcribed from Suffolk Harmony, 1786.
%%score [ 1 2 3 4 ]
L:1/8
Q:1/4=80
M:2/4
K:Bb
V:1 treble nm="Tr." snm="Tr."
V:2 treble nm="C." snm="C."
V:3 treble-8 nm="T." snm="T."
V:4 bass nm="B." snm="B."
V:1
 d | d2 c B | A2 B c |{c} B3 A | B2 B d | c2 c B |{B} A3 B | B2 c c | d2 d d |{d} c3 c | dc e d | %11
w: 1. When|all my past|days to re-|view, And|pon- der my|ways I be-|gin, The|fur- ther I|search I pur-|sue, I|trace * but cor-|
w: 2. Soon|as from the|womb I was|brought, My|race was in|e- vil be-|gun: My|spi- rit with|fro- ward- ness|fraught, And|false- * hood be-|
 BA c B | A3 B | B2 A B | BA d c | d3 |] %16
w: rup- * tion and|sin, I|trace but cor-|rup- * tion and|sin.|
w: gui- * led my|tongue, And|false- hood be-|gui- * led my|tongue.|
V:2
 F | F2 F F | F2 F F | F3 F | F2 F F | F2 F F | F3 B | G2 E F | F2 F F | F3 F | F2 F F | F2 F F | %12
w: 3. To|man- hood from|youth as I|grew, My|rea- son to|pas- sion the|slave: As|cus- tom, as|fa- shion still|drew, I|rush down the|steep to the|
 F3 F | FE G F | F2 F F | F3 |] %16
w: grave, I|rush * down the|steep to the|grave.|
V:3
 F | B2 c d | c2 d e |{e} d3 e | f2 d B | A2 e d |{d} c3 F | G2 E A | B2 F d |{B} A3 F | BA c B | %11
w: 4. My|con- science, that|mo- ni- tor|true, Re-|mon- strates, but|lit- tle a-|vails; The|good which I|would I can't|do, The|e- * vil I|
w: 5. Then|take me, Lord,|such that I|am, And|make me just|what I should|be; I'll|take to my-|delf all the|shame, And|give * all the|
 dc e d |{d} c3 F | G2 e d | dc B A | B3 |] %16
w: would * not, pre-|vails, The|e- vil I|would * not, pre-|vails.|
w: glo- * ry to|thee, And|give all the|glo- * ry to|thee.|
V:4
 B, | B,2 B, B, | F,2 F, F, | B,,3 C, | D,2 B,, B,, | F,2 A, B, | F,3 D, | E,2 E, E, | %8
 D,2 B,, B,, | F,3 F, | B,,2 B,, B,, | B,,2 E, E, | %12
"_______________________________________________________________\nHaweis called this tune Hymn One; it has also been titled Communion." F,3 D, | %13
 E,2 E, E, | F,2 F, F, | B,,3 |] %16

